!!!COM:	Hindemith
!!!OTL:	679_Hin-90/51/72-79
**kern	**dynam	**kern	**kern	**kern	**kern	**kern	**kern	**kern	**kern	**kern
*part10	*part10	*part9	*part8	*part7	*part6	*part5	*part4	*part3	*part2	*part1
*staff10	*S	*staff9	*staff8	*staff7	*staff6	*staff5	*staff4	*staff3	*staff2	*staff1
*I"Violin 1	*	*I"Timpani	*I"Tuba	*I"Bass Trombone	*I"Trombone	*I"Trumpet in Bb	*I"Horn in F	*I"Horn in F	*I"Bassoon	*I"Piccolo
*I'Vln. 1	*	*I'Timp.	*I'Tba.	*I'B. Tbn.	*I'Tbn.	*I'Tpt.	*I'Hn.	*I'Hn.	*I'Bsn.	*I'Picc.
*clefG2	*	*clefF4	*clefF4	*clefF4	*clefF4	*clefG2	*clefG2	*clefG2	*clefF4	*clefG2
*k[]	*	*	*k[]	*k[]	*k[]	*k[]	*	*	*k[]	*k[]
*	*	*	*	*	*	*	*	*	*	*
*M3/4	*	*M3/4	*M3/4	*M3/4	*M3/4	*M3/4	*M3/4	*M3/4	*M3/4	*M3/4
=1	=1	=1	=1	=1	=1	=1	=1	=1	=1	=1
2.r	.	2.r	8%3DD	8%3AA	8%3c	4b	8eL	8gL	2.r	8bbL
.	.	.	.	.	.	.	8eJ	8gJ	.	8ccc#XJ
.	.	.	.	.	.	4ccn	4d	4f#X	.	8dddL
.	.	.	8%3EE	8%3BB	8%3An	.	.	.	.	8ddd#XJ
.	.	.	.	.	.	4r	4c	4e	.	8eeeL
.	.	.	.	.	.	.	.	.	.	8fff#XJ
=2	=2	=2	=2	=2	=2	=2	=2	=2	=2	=2
4r	f	[2.BBt	[2.BB	[2.F#X	(2B	8bL	[2.B	4d#X	[2.BB	8aaaL
.	.	.	.	.	.	8bJ	.	.	.	8gggJ
4r	.	.	.	.	.	4cc#X	.	4r	.	4bbb
(8qqa/	mf	.	.	.	.	.	.	.	.	.
8qqa#X/	.	.	.	.	.	.	.	.	.	.
*	*	*	*	*	*clefC4	*	*	*	*	*
4b)	.	.	.	.	[4c#X)	4dd#X	.	8bL	.	4r
.	.	.	.	.	.	.	.	8bJ	.	.
=3	=3	=3	=3	=3	=3	=3	=3	=3	=3	=3
4r	.	4BB]	4BB]	4F#]	4c#]	4ee	4B]	4a	4BB]	2.r
4r	.	4r	2FF#X	2C#X	2d#X	4r	2A#X	4g#X	4r	.
(8qqan/	.	.	.	.	.	.	.	.	.	.
!LO:TX:t=cresc.	!	!	!	!	!	!	!	!	!	!
8qqa#X/	.	.	.	.	.	.	.	.	.	.
4b)	.	4r	.	.	.	8bL	.	4f#X	4r	.
.	.	.	.	.	.	8bJ	.	.	.	.
=4	=4	=4	=4	=4	=4	=4	=4	=4	=4	=4
4r	.	2.r	(2CC#X	(2GG#X	(2e	4cc#X	2B	4r	2.r	2.r
(8qqan/	.	.	.	.	.	.	.	.	.	.
8qqa#X/	.	.	.	.	.	.	.	.	.	.
4b)	.	.	.	.	.	4dd#X	.	8bL	.	.
.	.	.	.	.	.	.	.	8bJ	.	.
4r	.	.	[4CCn)	[4GGn)	[4fn)	4ee	[4cn	4a	.	.
=5	=5	=5	=5	=5	=5	=5	=5	=5	=5	=5
!!pagebreak:original
4r	.	2.r	4CC]	4GG]	4f]	4r	4c]	4gn	2.r	2.r
4r	.	.	2GG	2D	4c	8aL	4F	4fn	.	.
.	.	.	.	.	.	8aJ	.	.	.	.
(8qqan/	.	.	.	.	.	.	.	.	.	.
8qqa#X/	.	.	.	.	.	.	.	.	.	.
4b)	.	.	.	.	4d	4b	4G	4r	.	.
=6	=6	=6	=6	=6	=6	=6	=6	=6	=6	=6
4r	.	2.FFT	2.FF	2.C	8%3e-X	4cc	8%3A-X	8bL	2.FF	2.r
.	.	.	.	.	.	.	.	8bJ	.	.
(8qqan/	.	.	.	.	.	.	.	.	.	.
8qqa#X/	.	.	.	.	.	.	.	.	.	.
4b)	.	.	.	.	.	4dd	.	4a-X	.	.
.	.	.	.	.	8%3d	.	8%3G	.	.	.
4r	.	.	.	.	.	4r	.	4b	.	.
=7	=7	=7	=7	=7	=7	=7	=7	=7	=7	=7
4r	.	2.r	8%3DD	8%3AA	8%3c	8ccL	8%3F	4f	2.r	2.r
.	.	.	.	.	.	8ccJ	.	.	.	.
4r	.	.	.	.	.	4ee	.	4r	.	.
.	.	.	8%3EE	8%3BB	8%3d	.	8%3G	.	.	.
(8qqan/	.	.	.	.	.	.	.	.	.	.
8qqa#X/	.	.	.	.	.	.	.	.	.	.
4b)	.	.	.	.	.	4dd	.	8bL	.	.
.	.	.	.	.	.	.	.	8bJ	.	.
=8	=8	=8	=8	=8	=8	=8	=8	=8	=8	=8
4r	.	[2.BBt	[2.BB	[2.E	(2en	4b	(2G#X 2B	4a	[2.BBB [2.BB	2.r
(8qqan/	.	.	.	.	.	.	.	.	.	.
8qqa#X/	.	.	.	.	.	.	.	.	.	.
4b)	.	.	.	.	.	4r	.	4g#X	.	.
4r	.	.	.	.	[4f#X)	8bL	[4A) [4c#X	4f#X	.	.
.	.	.	.	.	.	8bJ	.	.	.	.
==	==	==	==	==	==	==	==	==	==	==
*-	*-	*-	*-	*-	*-	*-	*-	*-	*-	*-
!!!system-decoration: [(s1,s2)][(s3,s4,s5,s6,s7,s8)][(s9)]s10
!!!ONB: Converted from MusicXML on 2019/06/05
